svg/Frame-1261156360.svg

<svg width="20" height="20" viewBox="0 0 20 20" fill="none" xmlns="http://www.w3.org/2000/svg"><g filter="url(#filter0_d_326_19041)"><g><mask id="path-2-outside-1_326_19041" maskUnits="userSpaceOnUse" x="-275" y="-85" width="1440" height="961" fill="black"><path d="M-275 -84H1165V876H-275V-84Z"/></mask><path d="M-275 -84H1165V876H-275V-84Z" fill="white"/><path d="M-275 -84H71V876H-275V-84Z" fill="#FAFAF9"/><path d="M71 -84H70.5V876H71H71.5V-84H71Z" fill="#D4D4D4"/><path d="M16.25 2.5H3.75C3.05964 2.5 2.5 3.05964 2.5 3.75V16.25C2.5 16.9404 3.05964 17.5 3.75 17.5H16.25C16.9404 17.5 17.5 16.9404 17.5 16.25V3.75C17.5 3.05964 16.9404 2.5 16.25 2.5Z" stroke="#FF8A00" stroke-width="1.25" stroke-linejoin="round"/><path d="M10 6.66675V13.3334" stroke="#FF8A00" stroke-width="1.25" stroke-linecap="round" stroke-linejoin="round"/><path d="M6.66211 10H13.3288" stroke="#FF8A00" stroke-width="1.25" stroke-linecap="round" stroke-linejoin="round"/><path d="M-275 -84V-83H1165V-84V-85H-275V-84Z" fill="#E7E5E4" mask="url(#path-2-outside-1_326_19041)"/></g></g><defs><filter id="filter0_d_326_19041" x="-279" y="-85" width="1448" height="969" filterUnits="userSpaceOnUse" color-interpolation-filters="sRGB"><feFlood flood-opacity="0" result="BackgroundImageFix"/><feColorMatrix in="SourceAlpha" type="matrix" values="0 0 0 0 0 0 0 0 0 0 0 0 0 0 0 0 0 0 127 0" result="hardAlpha"/><feOffset dy="4"/><feGaussianBlur stdDeviation="2"/><feComposite in2="hardAlpha" operator="out"/><feColorMatrix type="matrix" values="0 0 0 0 0 0 0 0 0 0 0 0 0 0 0 0 0 0 0.02 0"/><feBlend mode="normal" in2="BackgroundImageFix" result="effect1_dropShadow_326_19041"/><feBlend mode="normal" in="SourceGraphic" in2="effect1_dropShadow_326_19041" result="shape"/></filter><clipPath id="clip0_326_19041"></clipPath><clipPath id="clip1_326_19041"><path d="M-275 -84H1165V876H-275V-84Z" fill="white"/></clipPath></defs></svg>

<svg fill="none" viewBox="0 0 20 20"><g filter="url(#a)"><mask id="b" width="1440" height="961" x="-275" y="-85" fill="black" maskUnits="userSpaceOnUse"/><path fill="#FAFAF9" d="M-275-84H71v960h-346z"/><path fill="#D4D4D4" d="M71-84h-.5v960h1V-84z"/><path stroke="#FF8A00" stroke-linejoin="round" stroke-width="1.25" d="M16.25 2.5H3.75c-.69 0-1.25.56-1.25 1.25v12.5c0 .69.56 1.25 1.25 1.25h12.5c.69 0 1.25-.56 1.25-1.25V3.75c0-.69-.56-1.25-1.25-1.25Z"/><path stroke="#FF8A00" stroke-linecap="round" stroke-linejoin="round" stroke-width="1.25" d="M10 6.667v6.666"/><path stroke="#FF8A00" stroke-linecap="round" stroke-linejoin="round" stroke-width="1.25" d="M6.662 10h6.667"/><path fill="#E7E5E4" d="M-275-84v1h1440v-2H-275z" mask="url(#b)"/></g><defs><filter id="a" width="1448" height="969" x="-279" y="-85" color-interpolation-filters="sRGB" filterUnits="userSpaceOnUse"><feFlood flood-opacity="0" result="BackgroundImageFix"/><feColorMatrix in="SourceAlpha" result="hardAlpha" type="matrix" values="0 0 0 0 0 0 0 0 0 0 0 0 0 0 0 0 0 0 127 0"/><feOffset dy="4"/><feGaussianBlur stdDeviation="2"/><feComposite in2="hardAlpha" operator="out"/><feColorMatrix type="matrix" values="0 0 0 0 0 0 0 0 0 0 0 0 0 0 0 0 0 0 0.02 0"/><feBlend in2="BackgroundImageFix" mode="normal" result="effect1_dropShadow_326_19041"/><feBlend in="SourceGraphic" in2="effect1_dropShadow_326_19041" mode="normal" result="shape"/></filter></defs></svg>
